build/category/GridSolid.svg

<svg xmlns="http://www.w3.org/2000/svg" fill="none" viewBox="0 0 24 24" focusable="false"><path d="M0 0H24V24H0z"/><path fill="#74767B" fill-rule="evenodd" d="M4 5.3C4 4.58203 4.58203 4 5.3 4L9.7 4C10.418 4 11 4.58203 11 5.3L11 9.7C11 10.418 10.418 11 9.7 11L5.3 11C4.58203 11 4 10.418 4 9.7L4 5.3ZM13 5.3C13 4.58203 13.582 4 14.3 4L18.7 4C19.418 4 20 4.58203 20 5.3L20 9.7C20 10.418 19.418 11 18.7 11L14.3 11C13.582 11 13 10.418 13 9.7L13 5.3ZM4 14.3C4 13.582 4.58203 13 5.3 13L9.7 13C10.418 13 11 13.582 11 14.3L11 18.7C11 19.418 10.418 20 9.7 20L5.3 20C4.58203 20 4 19.418 4 18.7L4 14.3ZM13 14.3C13 13.582 13.582 13 14.3 13L18.7 13C19.418 13 20 13.582 20 14.3L20 18.7C20 19.418 19.418 20 18.7 20L14.3 20C13.582 20 13 19.418 13 18.7L13 14.3Z"/></svg>

<svg xmlns="http://www.w3.org/2000/svg" fill="none" viewBox="0 0 24 24" focusable="false"><path fill="#74767B" fill-rule="evenodd" d="M4 5.29C4 4.58 4.58 4 5.29 4H9.7c.71 0 1.3.58 1.3 1.29V9.7c0 .71-.59 1.3-1.3 1.3H5.29C4.58 11 4 10.41 4 9.7zm9 0c0-.71.58-1.29 1.29-1.29h4.41c.71 0 1.3.58 1.3 1.29V9.7c0 .71-.59 1.3-1.3 1.3h-4.41c-.71 0-1.29-.59-1.29-1.3zM4 14.3c0-.72.58-1.3 1.29-1.3H9.7c.71 0 1.3.58 1.3 1.3v4.4c0 .71-.59 1.3-1.3 1.3H5.29C4.58 20 4 19.41 4 18.7zm9 0c0-.72.58-1.3 1.29-1.3h4.41c.71 0 1.3.58 1.3 1.3v4.4c0 .71-.59 1.3-1.3 1.3h-4.41c-.71 0-1.29-.59-1.29-1.3z"/></svg>
